X:158
T:West End Park Street
C:Robin Beech
Z:robin.beech@mcgill.ca
R:reel
M:4/4
L:1/8
K:A
A2GA FAEA | cagf dcBA | B2AB GBFB | E=g^ge dBGE |
A2GA FAEA | cagf dcBA | B2AB GBF=g | gedB A4 ::
caga dbge | aece deBe |caoga dbge |
aece BeGe | caga dbge | aece  deBe |1
caga dbge | ceBe GeEe :|2 caga dbg=g | gedB A4 |]
